resources/images/toolbar_brimears_dark.svg

<svg width="40" height="40" viewBox="0 0 40 40" fill="none" xmlns="http://www.w3.org/2000/svg">
<path d="M28.5 30H10.5C9.67 30 9 29.33 9 28.5V10.5C9 9.67 9.67 9 10.5 9H28.5C29.33 9 30 9.67 30 10.5V28.5C30 29.33 29.33 30 28.5 30ZM10.5 10C10.22 10 10 10.22 10 10.5V28.5C10 28.78 10.22 29 10.5 29H28.5C28.78 29 29 28.78 29 28.5V10.5C29 10.22 28.78 10 28.5 10H10.5Z" fill="#B6B6B6"/>
<path d="M15.91 9C15.43 6.16 12.97 4 10 4C6.69 4 4 6.69 4 10C4 12.97 6.16 15.43 9 15.91V14.98C8.41 14.86 7.86 14.64 7.37 14.34L9 12.71V11.3L6.57 13.73C5.93 13.14 5.45 12.39 5.17 11.54L11.53 5.18C12.38 5.45 13.13 5.93 13.72 6.58L11.29 9.01H12.7L14.33 7.38C14.63 7.87 14.85 8.42 14.97 9.01H15.9L15.91 9ZM4.95 10.34C4.95 10.23 4.92 10.12 4.92 10C4.92 7.2 7.2 4.92 10 4.92C10.12 4.92 10.23 4.94 10.34 4.95L4.95 10.34Z" fill="#FF7C3F"/>
<path d="M23.9302 8.99999C24.0502 8.40999 24.2702 7.85999 24.5702 7.36999L26.2002 8.99999H27.6102L25.1802 6.56999C25.7702 5.92999 26.5202 5.44999 27.3702 5.16999L33.7302 11.53C33.4602 12.38 32.9802 13.13 32.3302 13.72L29.9002 11.29V12.7L31.5302 14.33C31.0402 14.63 30.4902 14.85 29.9002 14.97V15.9C32.7402 15.42 34.9002 12.96 34.9002 9.98999C34.9002 6.67999 32.2102 3.98999 28.9002 3.98999C25.9302 3.98999 23.4702 6.14999 22.9902 8.98999H23.9202L23.9302 8.99999ZM28.5702 4.94999C28.6802 4.94999 28.7902 4.91999 28.9102 4.91999C31.7102 4.91999 33.9902 7.19999 33.9902 9.99999C33.9902 10.12 33.9702 10.23 33.9602 10.34L28.5702 4.94999Z" fill="#FF7C3F"/>
<path d="M14.9798 29.91C14.8598 30.5 14.6398 31.05 14.3398 31.54L12.7098 29.91H11.2998L13.7298 32.34C13.1398 32.98 12.3898 33.46 11.5398 33.74L5.17977 27.38C5.44977 26.53 5.92977 25.78 6.57977 25.19L9.00977 27.62V26.21L7.37977 24.58C7.86977 24.28 8.41977 24.06 9.00977 23.94V23.01C6.16977 23.49 4.00977 25.95 4.00977 28.92C4.00977 32.23 6.69977 34.92 10.0098 34.92C12.9798 34.92 15.4398 32.76 15.9198 29.92H14.9898L14.9798 29.91ZM10.3398 33.96C10.2298 33.96 10.1198 33.99 9.99977 33.99C7.19977 33.99 4.91977 31.71 4.91977 28.91C4.91977 28.79 4.93977 28.68 4.94977 28.57L10.3398 33.96Z" fill="#FF7C3F"/>
<path d="M23 29.91C23.48 32.75 25.94 34.91 28.91 34.91C32.22 34.91 34.91 32.22 34.91 28.91C34.91 25.94 32.75 23.48 29.91 23V23.93C30.5 24.05 31.05 24.27 31.54 24.57L29.91 26.2V27.61L32.34 25.18C32.98 25.77 33.46 26.52 33.74 27.37L27.38 33.73C26.53 33.46 25.78 32.98 25.19 32.33L27.62 29.9H26.21L24.58 31.53C24.28 31.04 24.06 30.49 23.94 29.9H23.01L23 29.91ZM33.96 28.57C33.96 28.68 33.99 28.79 33.99 28.91C33.99 31.71 31.71 33.99 28.91 33.99C28.79 33.99 28.68 33.97 28.57 33.96L33.96 28.57Z" fill="#FF7C3F"/>
</svg>

<?xml version="1.0" encoding="UTF-8"?><svg id="a" xmlns="http://www.w3.org/2000/svg" width="40" height="40" viewBox="0 0 40 40"><path d="M28.5,30H10.5c-.83,0-1.5-.67-1.5-1.5V10.5c0-.83.67-1.5,1.5-1.5h18c.83,0,1.5.67,1.5,1.5v18c0,.83-.67,1.5-1.5,1.5ZM10.5,10c-.28,0-.5.22-.5.5v18c0,.28.22.5.5.5h18c.28,0,.5-.22.5-.5V10.5c0-.28-.22-.5-.5-.5H10.5Z" style="fill:#b6b6b6;"/><path d="M15.91,9c-.48-2.84-2.94-5-5.91-5-3.31,0-6,2.69-6,6,0,2.97,2.16,5.43,5,5.91v-.93c-.59-.12-1.14-.34-1.63-.64l1.63-1.63v-1.41l-2.43,2.43c-.64-.59-1.12-1.34-1.4-2.19l6.36-6.36c.85.27,1.6.75,2.19,1.4l-2.43,2.43h1.41l1.63-1.63c.3.49.52,1.04.64,1.63h.93ZM4.95,10.34c0-.11-.03-.22-.03-.34,0-2.8,2.28-5.08,5.08-5.08.12,0,.23.02.34.03l-5.39,5.39Z" style="fill:#009688;"/><path d="M23.93,9c.12-.59.34-1.14.64-1.63l1.63,1.63h1.41s-2.43-2.43-2.43-2.43c.59-.64,1.34-1.12,2.19-1.4l6.36,6.36c-.27.85-.75,1.6-1.4,2.19l-2.43-2.43v1.41s1.63,1.63,1.63,1.63c-.49.3-1.04.52-1.63.64v.93c2.84-.48,5-2.94,5-5.91,0-3.31-2.69-6-6-6-2.97,0-5.43,2.16-5.91,5h.93ZM28.57,4.95c.11,0,.22-.03.34-.03,2.8,0,5.08,2.28,5.08,5.08,0,.12-.02.23-.03.34l-5.39-5.39Z" style="fill:#009688;"/><path d="M14.98,29.91c-.12.59-.34,1.14-.64,1.63l-1.63-1.63h-1.41l2.43,2.43c-.59.64-1.34,1.12-2.19,1.4l-6.36-6.36c.27-.85.75-1.6,1.4-2.19l2.43,2.43v-1.41l-1.63-1.63c.49-.3,1.04-.52,1.63-.64v-.93c-2.84.48-5,2.94-5,5.91,0,3.31,2.69,6,6,6,2.97,0,5.43-2.16,5.91-5h-.93ZM10.34,33.96c-.11,0-.22.03-.34.03-2.8,0-5.08-2.28-5.08-5.08,0-.12.02-.23.03-.34l5.39,5.39Z" style="fill:#009688;"/><path d="M23,29.91c.48,2.84,2.94,5,5.91,5,3.31,0,6-2.69,6-6,0-2.97-2.16-5.43-5-5.91v.93c.59.12,1.14.34,1.63.64l-1.63,1.63v1.41s2.43-2.43,2.43-2.43c.64.59,1.12,1.34,1.4,2.19l-6.36,6.36c-.85-.27-1.6-.75-2.19-1.4l2.43-2.43h-1.41s-1.63,1.63-1.63,1.63c-.3-.49-.52-1.04-.64-1.63h-.93ZM33.96,28.57c0,.11.03.22.03.34,0,2.8-2.28,5.08-5.08,5.08-.12,0-.23-.02-.34-.03l5.39-5.39Z" style="fill:#009688;"/></svg>
